X: 7309
T: Clergy's Lamentation, The
R: reel
M: 4/4
K: Eminor
BABD E2 EF|G2 GA B2 ed|efed B2 AG|FGAF EFED|
BABD E2 EF|G2 GA B2 ed|efed B2 AG|FGAB BE/D/ E2|E4 z4||
e2 dB BABd|e2 ef g2 ga|g2 B2 fefg|f2 ed edef|
e2 dB g2 fe|e3d BdAB|G2 GF E2 EF|GFGA BABd|
efed B2 AG|FGAB BE/D/ E2|E4 z4||

